local/share/icons/dracula-icons-main/scalable/mimetypes/text-x-c.svg

<?xml version="1.0" encoding="UTF-8"?>
<svg xmlns="http://www.w3.org/2000/svg" xmlns:xlink="http://www.w3.org/1999/xlink" width="64" height="64" viewBox="0 0 64 64">
<defs>
<filter id="filter-remove-color" x="0%" y="0%" width="100%" height="100%">
<feColorMatrix color-interpolation-filters="sRGB" values="0 0 0 0 1 0 0 0 0 1 0 0 0 0 1 0 0 0 1 0" />
</filter>
<mask id="mask-0">
<g filter="url(#filter-remove-color)">
<rect x="-6.4" y="-6.4" width="76.8" height="76.8" fill="rgb(0%, 0%, 0%)" fill-opacity="0.1"/>
</g>
</mask>
<linearGradient id="linear-pattern-0" gradientUnits="userSpaceOnUse" x1="49.570999" y1="52.714001" x2="51.714001" y2="54.856998" gradientTransform="matrix(0.617345, 0, 0, 0.617345, -18.167916, -19.050025)">
<stop offset="0" stop-color="rgb(0%, 0%, 0%)" stop-opacity="1"/>
<stop offset="1" stop-color="rgb(0%, 0%, 0%)" stop-opacity="0"/>
</linearGradient>
<clipPath id="clip-0">
<rect x="0" y="0" width="17" height="17"/>
</clipPath>
<g id="source-7945" clip-path="url(#clip-0)">
<path fill-rule="evenodd" fill="url(#linear-pattern-0)" d="M 14.816406 12.171875 L 11.113281 15.875 L 13.492188 15.875 C 14.226562 15.875 14.816406 15.285156 14.816406 14.550781 Z M 14.816406 12.171875 "/>
</g>
</defs>
<path fill-rule="nonzero" fill="rgb(95.686275%, 95.686275%, 95.686275%)" fill-opacity="1" d="M 3.441406 1.058594 L 13.492188 1.058594 C 14.222656 1.058594 14.816406 1.652344 14.816406 2.382812 L 14.816406 14.550781 C 14.816406 15.28125 14.222656 15.875 13.492188 15.875 L 3.441406 15.875 C 2.707031 15.875 2.117188 15.28125 2.117188 14.550781 L 2.117188 2.382812 C 2.117188 1.652344 2.707031 1.058594 3.441406 1.058594 Z M 3.441406 1.058594 "/>
<g mask="url(#mask-0)">
<use xlink:href="#source-7945"/>
</g>
<path fill-rule="nonzero" fill="rgb(18.431373%, 37.254902%, 86.666667%)" fill-opacity="1" d="M 11.476562 9.632812 C 11.453125 10.132812 11.316406 10.578125 11.070312 10.964844 C 10.820312 11.347656 10.472656 11.644531 10.023438 11.855469 C 9.578125 12.066406 9.070312 12.171875 8.496094 12.171875 C 7.550781 12.171875 6.804688 11.863281 6.257812 11.246094 C 5.714844 10.628906 5.441406 9.757812 5.441406 8.632812 L 5.441406 8.277344 C 5.441406 7.570312 5.566406 6.953125 5.808594 6.425781 C 6.054688 5.894531 6.410156 5.484375 6.871094 5.199219 C 7.335938 4.90625 7.867188 4.761719 8.476562 4.761719 C 9.351562 4.761719 10.054688 4.992188 10.585938 5.457031 C 11.117188 5.914062 11.417969 6.546875 11.488281 7.355469 L 9.757812 7.355469 C 9.746094 6.917969 9.632812 6.601562 9.425781 6.410156 C 9.21875 6.21875 8.902344 6.125 8.476562 6.125 C 8.042969 6.125 7.726562 6.285156 7.527344 6.609375 C 7.324219 6.929688 7.21875 7.449219 7.210938 8.15625 L 7.210938 8.667969 C 7.210938 9.433594 7.304688 9.984375 7.496094 10.316406 C 7.691406 10.644531 8.023438 10.808594 8.496094 10.808594 C 8.894531 10.808594 9.199219 10.714844 9.410156 10.527344 C 9.621094 10.339844 9.734375 10.039062 9.746094 9.632812 Z M 11.476562 9.632812 "/>
</svg>

<svg width="64" height="64" version="1.1" viewBox="0 0 16.933 16.933" xmlns="http://www.w3.org/2000/svg">
 <defs>
  <linearGradient id="a" x1="49.571" x2="51.714" y1="52.714" y2="54.857" gradientTransform="matrix(2.3333,0,0,2.3333,-68.667,-72.001)" gradientUnits="userSpaceOnUse">
   <stop offset="0"/>
   <stop stop-opacity="0" offset="1"/>
  </linearGradient>
 </defs>
 <g transform="scale(.26458)">
  <rect x="8" y="4" width="48" height="56" ry="5" fill="#f4f4f4" style="paint-order:stroke fill markers"/>
  <path d="m56 46-14 14h9c2.77 0 5-2.23 5-5z" fill="url(#a)" fill-rule="evenodd" opacity=".1" stroke-width="8.8191" style="paint-order:stroke fill markers"/>
 </g>
 <path d="m11.475 9.6319q-0.03464 0.75219-0.40579 1.3312-0.37115 0.57404-1.0442 0.89076-0.66807 0.31672-1.5291 0.31672-1.4203 0-2.2368-0.92539-0.81653-0.92542-0.81653-2.6129v-0.35632q0-1.059 0.3662-1.8508 0.37115-0.79673 1.064-1.2273 0.69281-0.4355 1.6034-0.4355 1.3114 0 2.1081 0.69283 0.79674 0.68788 0.90561 1.9003h-1.732q-0.01979-0.65816-0.33156-0.94521-0.31177-0.28702-0.95015-0.28702-0.64828 0-0.95015 0.48498t-0.31672 1.5489v0.50971q0 1.153 0.28702 1.6479 0.29197 0.49486 0.99964 0.49486 0.59879 0 0.91551-0.28208 0.31672-0.28206 0.33651-0.8957z" enable-background="new" fill="#2f5fdd"/>
</svg>
